svg/fluentui-system-icons/ic_fluent_clipboard_3_day_20_filled.svg

<svg width="20" height="20" viewBox="0 0 20 20" fill="none" xmlns="http://www.w3.org/2000/svg">
<path d="M8.5 2C7.84689 2 7.29127 2.4174 7.08535 3H5.5C4.67157 3 4 3.67157 4 4.5V16.5C4 17.3284 4.67157 18 5.5 18H14.5C15.3284 18 16 17.3284 16 16.5V4.5C16 3.67157 15.3284 3 14.5 3H12.9146C12.7087 2.4174 12.1531 2 11.5 2H8.5ZM8 3.5C8 3.22386 8.22386 3 8.5 3H11.5C11.7761 3 12 3.22386 12 3.5C12 3.77614 11.7761 4 11.5 4H8.5C8.22386 4 8 3.77614 8 3.5ZM7 13.5L7 7.5C7 7.22386 7.22386 7 7.5 7C7.77614 7 8 7.22386 8 7.5L8 13.5C8 13.7761 7.77614 14 7.5 14C7.22386 14 7 13.7761 7 13.5ZM12.5 14C12.2239 14 12 13.7761 12 13.5L12 7.5C12 7.22386 12.2239 7 12.5 7C12.7761 7 13 7.22386 13 7.5V13.5C13 13.7761 12.7761 14 12.5 14ZM9.5 13.5L9.5 7.5C9.5 7.22386 9.72386 7 10 7C10.2761 7 10.5 7.22386 10.5 7.5L10.5 13.5C10.5 13.7761 10.2761 14 10 14C9.72386 14 9.5 13.7761 9.5 13.5Z" fill="#212121"/>
</svg>

<svg xmlns="http://www.w3.org/2000/svg" width="20" height="20"><path d="M8.5 2a1.5 1.5 0 0 0-1.415 1H5.5A1.5 1.5 0 0 0 4 4.5v12A1.5 1.5 0 0 0 5.5 18h9a1.5 1.5 0 0 0 1.5-1.5v-12A1.5 1.5 0 0 0 14.5 3h-1.585A1.5 1.5 0 0 0 11.5 2h-3ZM8 3.5a.5.5 0 0 1 .5-.5h3a.5.5 0 0 1 0 1h-3a.5.5 0 0 1-.5-.5Zm-1 10v-6a.5.5 0 0 1 1 0v6a.5.5 0 0 1-1 0Zm5.5.5a.5.5 0 0 1-.5-.5v-6a.5.5 0 0 1 1 0v6a.5.5 0 0 1-.5.5Zm-3-.5v-6a.5.5 0 0 1 1 0v6a.5.5 0 0 1-1 0Z"/></svg>
